X: 509
T: Zao xikao
L: 1/16
M: 2/4
K: F
G2 F D C2 A d [I:setbarnb 1]| 
c6d2 | 
f2 f d c d A G | 
F6D2 | 
G Ac4f2 | 
c d A G F2 D2 | 
A G A A G2 F D | 
C8 |]

@@@ Tune index: 9383
